!!!!SEGMENT: pl-wumfc--r244--002_paderewski-ignacy-jan--6-melodies-op-18--vocal-piece.krn
!!!cenid: 18xx:3132
!!!COM: Paderewski, Ignacy Jan
!!!COM-rismid: pe30029943
!!!CDT: 1860/11/18-1941/06/29
!!!CNT: Polish
!!!GTL: 6 Mélodies op. 18
!!!OTL: [Vocal piece]
!!!PDT:
!!!AGN:
!!!SMS-siglum: PL-Wumfc
!!!SMS-shelfmark: R244
!!!SMS-shelfwork: 002 G
!!!SMS-variant:
!!!SMS-altvar:
!!!NIFC-rismid: 1001155725
!!!URL-scan: http://repozytorium.nifc.pl/skany/pl-wumfc--r244
!!!ONB-nifc: Nr II, Idę ja Niemniem
!!!key: A-
**kern	**kern	**kern	**text	**dynam
*part2	*part2	*part1	*part1	*part1
*staff3	*staff2	*staff1	*staff1	*
*I"[Pianoforte]	*I"[Pianoforte]	*I"[Voce]	*	*
*Ipiano	*Ipiano	*Ivox	*	*
*ICklav	*ICklav	*ICvox	*	*
*IGacmp	*IGacmp	*IGsolo	*	*
*clefF4	*clefG2	*clefG2	*	*
*k[b-e-a-d-]	*k[b-e-a-d-]	*k[b-e-a-d-]	*	*
*A-:	*A-:	*A-:	*	*
*M3/4	*M3/4	*M3/4	*	*
=1	=1	=1	=1	=1
!!LO:TX:t=P:problem:all\ left or right
4EE-/	2.r	2.r	.	.
4EE-/	.	.	.	.
4EE-/	.	.	.	.
=2	=2	=2	=2	=2
4EE-/	4r	2.r	.	.
4EE-/	(>16e-/LL 16g 16b-	.	.	.
.	16B-/	.	.	.
.	16e-/ 16g 16b-	.	.	.
.	16B-/JJ	.	.	.
4EE-/	16d-/LL 16f	.	.	.
.	16B-/	.	.	.
.	16d-/ 16f	.	.	.
.	16B-/JJ	.	.	.
=3	=3	=3	=3	=3
*	*^	*	*	*
4EE-/	4e-/) 4g 4b-	4ryy	2.r	.	.
4EE-/	(>16f/LL	4d-\	.	.	.
.	16g/	.	.	.	.
.	16a-/	.	.	.	.
.	16g/JJ	.	.	.	.
4EE-/	16f/LL	4d-\	.	.	.
.	16a-/	.	.	.	.
.	16g/	.	.	.	.
.	16f/JJ	.	.	.	.
*	*v	*v	*	*	*
=4	=4	=4	=4	=4
4EE-/	4e-/) 4g	2.r	.	.
4EE-/	(>16e-/LL 16g 16b-	.	.	.
.	16B-/	.	.	.
.	16e-/ 16g 16b-	.	.	.
.	16B-/JJ	.	.	.
4EE-/	16d-/LL 16f	.	.	.
.	16B-/	.	.	.
.	16d-/ 16f	.	.	.
.	16B-/JJ	.	.	.
=5	=5	=5	=5	=5
*	*^	*	*	*
4EE-/	4e-/) 4g 4b-	4ryy	2.r	.	.
4EE-/	(>16f/LL	4d-\	.	.	.
.	16g/	.	.	.	.
.	16a-/	.	.	.	.
.	16g/JJ	.	.	.	.
4EE-/	16f/LL	4d-\	.	.	.
.	16a-/	.	.	.	.
.	16g/	.	.	.	.
.	16f/JJ	.	.	.	.
*	*v	*v	*	*	*
=6	=6	=6	=6	=6
4EE-/	4e-/) 4g	2.r	.	.
4EE-/	(>16e-/LL 16g 16b-	.	.	.
.	16B-/	.	.	.
.	16e-/ 16g 16b-	.	.	.
.	16B-/JJ	.	.	.
4EE-/	16d-/LL 16f	.	.	.
.	16B-/	.	.	.
.	16d-/ 16f	.	.	.
.	16B-/JJ	.	.	.
=7	=7	=7	=7	=7
4EE-/	16e-/LL 16g 16b-	2.r	.	.
.	16B-/	.	.	.
.	16e-/ 16g 16b-	.	.	.
.	16B-/JJ	.	.	.
4EE-/	16d-/LL 16f	.	.	.
.	16B-/	.	.	.
.	16d-/ 16f	.	.	.
.	16B-/JJ	.	.	.
4EE-/	16e-/LL 16g 16b-	.	.	.
.	16B-/	.	.	.
.	16e-/ 16g 16b-	.	.	.
.	16B-/JJ)	.	.	.
!!LO:LB:g=original
=8	=8	=8	=8	=8
*^	*	*	*	*
4ryy	2.EE-\ 2.BB-	(>16d-/LL 16f	2.r	.	.
.	.	16B-/	.	.	.
.	.	16d-/ 16f	.	.	.
.	.	[16B-/JJ)	.	.	.
!LO:TX:a:t=mg	!	!	!	!	!
2ee->/	.	2B-\] 2e- 2g 2b-	.	.	.
=9	=9	=9	=9	=9	=9
4ryy	2.EE-\ 2.BB-	(>16d-/LL 16f	2.r	.	.
.	.	16B-/	.	.	.
.	.	16d-/ 16f	.	.	.
.	.	[16B-/JJ)	.	.	.
2ee->;/	.	2B-\] 2e- 2g 2b-	.	.	.
*v	*v	*	*	*	*
=10	=10	=10	=10	=10
*	*	*	*color:grey	*
2AA-\ 2E- 2A-	2c/ 2e- 2a- 2cc	4.cc\	I-	.
.	.	8a-/	-dę	.
4AA-\ 4A-	4c/ 4e- 4a- 4cc	4cc\	ja	.
=11	=11	=11	=11	=11
2FF\ 2A-	2d-/ 2a- 2dd-	2dd-\	Nie-	.
4GG\ 4E- 4B-	4d-/ 4e- 4dd-	4dd-\	-mnem	.
=12	=12	=12	=12	=12
2AA-\ 2E- 2A-	2c/ 2e- 2cc	4cc\	jak	.
.	.	4.ee-\	Nie-	.
4FF\ 4F	4A-/ 4e- 4a-	.	.	.
.	.	8a-/	-men	.
=13	=13	=13	=13	=13
*	*^	*	*	*
2EE-\ 2E-	2e-/ 2g	4G\	2g/	dłu-	.
.	.	4G\	.	.	.
4DD-\ 4D-	4F/ 4G 4f	4ryy	4f/	-gi	.
*	*v	*v	*	*	*
!!LO:LB:g=original
=14	=14	=14	=14	=14
2.CC\ 2.C	2A-/ 2e-	2e-/	Od	.
.	4A-/ 4a-	4a-/	wio-	.
=15	=15	=15	=15	=15
2BBB-\ 2BB-	2d-/ 2a- 2dd-	2dd-\	-se-	.
4EE-\ 4E-	4d-/ 4g 4dd-	4dd-\	-czki	.
=16	=16	=16	=16	=16
2AAA-\ 2AA-	2c/ 2e- 2a- 2cc	2cc\	do	.
4CC\ 4C	8B-/L 8e- 8b-	(8b-\L	wio-	.
.	8A-/J 8a-	8a-\J)	.	.
=17	=17	=17	=17	=17
2EE-\ 2E-	2B-/ 2e- 2g 2b-	2b-/	-se-	.
4E-\	4e-/	4e-/	-czki	.
=18	=18	=18	=18	=18
2AA-\ 2E- 2A-	2c/ 2e- 2a- 2cc	4cc\	Z bor-	.
.	.	4a-/	-ku	.
4AA-\ 4A-	4c/ 4e- 4a- 4cc	4cc\	do	.
=19	=19	=19	=19	=19
2AA-\ 2A-	2d-/ 2a- 2dd-	2dd-\	bor-	.
4GG\ 4E- 4B-	4d-/ 4e- 4dd-	4dd-\	-ku	.
!!LO:LB:g=original
=20	=20	=20	=20	=20
2AA-\ 2A-	2c/ 2e- 2cc	4cc\	Z Smu-	.
.	.	4.ee-\	-gów	.
4CC\ 4C	4A-/ 4e- 4a-	.	.	.
.	.	8a-/	na	.
=21	=21	=21	=21	=21
*	*^	*	*	*
2.DD-\ 2.D-	2g/	2.A-\ 2.d-	2g/	Smu-	.
.	4f/	.	4f/	-gi	.
*	*v	*v	*	*	*
=22	=22	=22	=22	=22
2.EE-\ 2.E-	2A-/ 2c 2e-	4e-/	śpie-	.
.	.	4a-/	-wa-	.
.	4c/ 4e- 4a-	4cc\	-jąc	.
=23	=23	=23	=23	=23
*	*^	*	*	*
2BBB-\ 2BB-	2d-/ 2dd-	4f\	2dd-\	mo-	.
.	.	4g\	.	.	.
4CC\ 4C	4e-/ 4a- 4cc	4ryy	4cc\	-je	.
*	*v	*v	*	*	*
=24	=24	=24	=24	=24
2DD-\ 2D-	2B-/ 2d- 2f 2b-	(>8b-\L	pio-	.
.	.	8cc\J)	.	.
.	.	(>4.b-/	-sne-	.
4EE-\ 4E-	4G/ 4d- 4e- 4g	.	.	.
.	.	8a-/)	[[czk]]	.
=25	=25	=25	=25	=25
4AAA-\ 4AA-	4A-/ 4c 4e- 4a-	4a-/	-czki	.
4EE-/	4r	4r	.	.
4EE-/	4r	4r	.	.
!!LO:PB:g=original
=26	=26	=26	=26	=26
4EE-/	4r	2.ryy	.	.
4EE-/	(>16e-/LL 16g 16b-	.	.	.
.	16B-/	.	.	.
.	16e-/ 16g 16b-	.	.	.
.	16B-/JJ	.	.	.
4EE-/	16d-/LL 16f	.	.	.
.	16B-/	.	.	.
.	16d-/ 16f	.	.	.
.	16B-/JJ	.	.	.
=27	=27	=27	=27	=27
*	*^	*	*	*
4EE-/	4e-/) 4g 4b-	4ryy	2.ryy	.	.
4EE-/	(>16f/LL	4d-\	.	.	.
.	16g/	.	.	.	.
.	16a-/	.	.	.	.
.	16g/JJ	.	.	.	.
4EE-/	16f/LL	4d-\	.	.	.
.	16a-/	.	.	.	.
.	16g/	.	.	.	.
.	16f/JJ	.	.	.	.
*	*v	*v	*	*	*
=28	=28	=28	=28	=28
4EE-/	4e-/) 4g	2.ryy	.	.
4EE-/	(>16e-/LL 16g 16b-	.	.	.
.	16B-/	.	.	.
.	16e-/ 16g 16b-	.	.	.
.	16B-/JJ	.	.	.
4EE-/	16d-/LL 16f	.	.	.
.	16B-/	.	.	.
.	16d-/ 16f	.	.	.
.	16B-/JJ	.	.	.
=29	=29	=29	=29	=29
*	*^	*	*	*
4EE-/	4e-/) 4g 4b-	4ryy	2.ryy	.	.
4EE-/	(>16f/LL	4d-\	.	.	.
.	16g/	.	.	.	.
.	16a-/	.	.	.	.
.	16g/JJ	.	.	.	.
4EE-/	16f/LL	4d-\	.	.	.
.	16a-/	.	.	.	.
.	16g/	.	.	.	.
.	16f/JJ	.	.	.	.
*	*v	*v	*	*	*
=30	=30	=30	=30	=30
4EE-/	4e-/) 4g	2.ryy	.	.
4EE-/	(>16e-/LL 16g 16b-	.	.	.
.	16B-/	.	.	.
.	16e-/ 16g 16b-	.	.	.
.	16B-/JJ	.	.	.
4EE-/	16d-/LL 16f	.	.	.
.	16B-/	.	.	.
.	16d-/ 16f	.	.	.
.	16B-/JJ	.	.	.
=31	=31	=31	=31	=31
4EE-/	16e-/LL 16g 16b-	2.ryy	.	.
.	16B-/	.	.	.
.	16e-/ 16g 16b-	.	.	.
.	16B-/JJ	.	.	.
4EE-/	16d-/LL 16f	.	.	.
.	16B-/	.	.	.
.	16d-/ 16f	.	.	.
.	16B-/JJ	.	.	.
4EE-/	16e-/LL 16g 16b-	.	.	.
.	16B-/	.	.	.
.	16e-/ 16g 16b-	.	.	.
.	16B-/JJ)	.	.	.
!!LO:LB:g=original
=32	=32	=32	=32	=32
4EE-/ 4BB-	16d-/LL 16f	2.ryy	.	.
.	16B-/	.	.	.
.	16d-/ 16f	.	.	.
.	16B-/JJ	.	.	.
4EE-/ 4BB-	16e-/LL 16g 16b-	.	.	.
.	16B-/	.	.	.
.	16e-/ 16g 16b-	.	.	.
.	16B-/JJ	.	.	.
4EE-/ 4BB-	16d-/LL 16f	.	.	.
.	16B-/	.	.	.
.	16d-/ 16f	.	.	.
.	16B-/JJ	.	.	.
=33	=33	=33	=33	=33
4EE-\ 4BB- 4E-	4B-/ 4e- 4g 4b-	2.ryy	.	.
4EE-\ 4BB- 4F	4B-/ 4d- 4f 4b-	.	.	.
4EE-:\ 4BB-: 4E-: 4G:	4e-/ 4g 4b- 4ee-	.	.	.
=34	=34	=34	=34	=34
4AA-:\ 4E-: 4A-: 4c:	4e-:/ 4a-: 4cc: 4ee-:	(8cc\L	Wszy-	.
.	.	8ee-\J)	.	.
4AA-:\ 4E-: 4A-: 4c:	4e-:/ 4a-: 4cc: 4ee-:	4ee-\	-scy	.
4AA-:\ 4E-: 4A-: 4c:	4e-:/ 4a-: 4cc: 4ee-:	4ee-\	się	.
=35	=35	=35	=35	=35
4D-:\ 4F: 4A-: 4d-:	4f/ 4a- 4dd- 4ff	([4dd-\	zbie-	.
4DD-\ 4AA- 4D-	4F</ 4A-< 4d-< 4f<	8dd-\L]	.	.
.	.	8cc\J)	.	.
4r	4r	(8b-\L	-gli	.
.	.	8dd-\J)	.	.
=36	=36	=36	=36	=36
4AA-\ 4E- 4A- 4c	4e-/ 4a- 4cc 4ee-	(8cc\L	wszy-	.
.	.	8ee-\J)	.	.
4AA-\ 4E- 4A- 4c	4e-/ 4a- 4cc 4ee-	4ee-\	-scy	.
4AA-\ 4E- 4A- 4c	4e-/ 4a- 4cc 4ee-	4ee-\	słu-	.
=37	=37	=37	=37	=37
4D-\ 4F 4A- 4d-	4f/ 4a- 4dd- 4ff	(>[>4dd-\	-cha-	.
4DD-\ 4AA- 4D-	4F</ 4A-< 4d-< 4f<	8dd-\L]	.	.
.	.	8cc\J)	.	.
4r	4r	(>8b-\L	-li	.
.	.	8dd-\J)	.	.
!!LO:LB:g=original
=38	=38	=38	=38	=38
!LO:N:vis=2	!	!	!	!
2.FF\ 2.F	2A-/ 2a-	4.cc\	A-	.
.	.	8cc\	-le	.
.	4A-/ 4f 4a-	8b-\	nikt	.
.	.	8a-/	mnie	.
=39	=39	=39	=39	=39
!LO:N:vis=2	!	!	!	!
2.CC\ 2.C	[2G/ 2f [2g	8g/	nie	.
.	.	8g/	zro-	.
.	.	4.cc\	-zu-	.
.	4G/] 4en 4g]	.	.	.
.	.	8cc\	-mie	.
=40	=40	=40	=40	=40
!LO:N:vis=2	!LO:N:vis=2	!	!	!
2.EE-X\ 2.E-X	2.G-X/ 2.e-X 2.g-X	4.b-/	A-	.
.	.	8b-/	-le	.
.	.	8a-/	nikt	.
.	.	8g-X/	mnie	.
=41	=41	=41	=41	=41
!LO:N:vis=2	!	!	!	!
2.BBB-\ 2.BB-	[2F/ 2e- [2f	8f/	nie	.
.	.	8f/	zro-	.
.	.	4.b-/	-zu-	.
.	4F/] 4dn 4f]	.	.	.
.	.	8b-/	-mie	.
=42	=42	=42	=42	=42
!LO:N:vis=2	!	!	!	!
2.DD-X\ 2.D-X	2F/ 2d-X 2f	(<4a-/	Nie	.
.	.	4f/)	.	.
.	4F/ 4A- 4f	4a-/	zro-	.
=43||	=43||	=43||	=43||	=43||
*ok[bnenandnf#c#g#]	*ok[bnenandnf#c#g#]	*ok[bnenandnf#c#g#]	*	*
*k[f#c#g#]	*k[f#c#g#]	*k[f#c#g#]	*	*
4DD\ 4D	4E</ 4G#< 4e	[>2.e/	-zu-	.
4DD/	(>16e/LL 16g# 16b	.	.	.
.	16B/	.	.	.
.	16e/ 16g# 16b	.	.	.
.	16B/JJ	.	.	.
4DD/	16e/LL 16f#	.	.	.
.	16B/	.	.	.
.	16e/ 16f#	.	.	.
.	16B/JJ	.	.	.
!!LO:LB:g=original
=44	=44	=44	=44	=44
*	*^	*	*	*
!	!	!	!LO:TX:t=P:problem:brak zakończenia łuku	!	!
4DD/	4e/) 4g# 4b	4ryy	2e/]	-mie	.
4DD/	(>16f#/LL	4e\	.	.	.
.	16g#/	.	.	.	.
.	16a/	.	.	.	.
.	16g#/JJ	.	.	.	.
4DD/	16f#/LL	4e\	4ryy	.	.
.	16a/	.	.	.	.
.	16g#/	.	.	.	.
.	16f#/JJ	.	.	.	.
*	*v	*v	*	*	*
=45	=45	=45	=45	=45
4DD/	4e/) 4g#	2.ryy	.	.
4DD/	(>16e/LL 16g# 16b	.	.	.
.	16B/	.	.	.
.	16e/ 16g# 16b	.	.	.
.	16B/JJ	.	.	.
4DD/	16e/LL 16f#	.	.	.
.	16B/	.	.	.
.	16e/ 16f#	.	.	.
.	16B/JJ	.	.	.
=46	=46	=46	=46	=46
*	*^	*	*	*
4DD/	4e/) 4g# 4b	4ryy	2.ryy	.	.
4DD/	(>16f#/LL	4e\	.	.	.
.	16g#/	.	.	.	.
.	16a/	.	.	.	.
.	16g#/JJ	.	.	.	.
4DD/	16f#/LL	4e\	.	.	.
.	16a/	.	.	.	.
.	16g#/	.	.	.	.
.	16f#/JJ	.	.	.	.
*	*v	*v	*	*	*
=47	=47	=47	=47	=47
4DD/	4e/) 4g#	2.r	.	.
4DD/	(>16e/LL 16g# 16b	.	.	.
.	16B/	.	.	.
.	16e/ 16g# 16b	.	.	.
.	16B/JJ	.	.	.
4DD/	16e/LL 16f#	.	.	.
.	16B/	.	.	.
.	16e/ 16f#	.	.	.
.	16B/JJ	.	.	.
=48	=48	=48	=48	=48
4DD/	16e/LL 16g# 16b	2.r	.	.
.	16B/	.	.	.
.	16e/ 16g# 16b	.	.	.
.	16B/JJ	.	.	.
4DD/	16e/LL 16f#	.	.	.
.	16B/	.	.	.
.	16e/ 16f#	.	.	.
.	16B/JJ	.	.	.
4DD/	16e/LL 16g# 16b	.	.	.
.	16B/	.	.	.
.	16e/ 16g# 16b	.	.	.
.	16B/JJ)	.	.	.
=49||	=49||	=49||	=49||	=49||
*k[f#c#g#d#a#]	*k[f#c#g#d#a#]	*k[f#c#g#d#a#]	*	*
4DD#/	(>16d#/LL 16g#	2.r	.	.
.	16B/	.	.	.
.	16d#/ 16g#	.	.	.
.	16B/JJ	.	.	.
4DD#/	16d#/LL 16b	.	.	.
.	16B/	.	.	.
.	16d#/ 16b	.	.	.
.	16B/JJ	.	.	.
4DD#/	16d#/LL 16g#	.	.	.
.	16B/	.	.	.
.	16d#/ 16g#	.	.	.
.	16B/JJ)	.	.	.
!!LO:PB:g=original
=50	=50	=50	=50	=50
4DD#/	16f##X/LL 16b	2.ryy	.	.
.	16B/	.	.	.
.	16f##/ 16b	.	.	.
.	16B/JJ	.	.	.
4D#\	4B/ 4d# 4f##	.	.	.
4DD#\ 4D#	4B/ 4d# 4f## 4b	.	.	.
=51	=51	=51	=51	=51
4GG#:\ 4D#: 4G#: 4B:	4d#:/ 4g#: 4b: 4dd#:	(>8b\L	Ja	.
.	.	8dd#\J)	.	.
4GG#:\ 4D#: 4G#: 4B:	4d#:/ 4g#: 4b: 4dd#:	4dd#\	łzy	.
4GG#:\ 4D#: 4G#: 4B:	4d#:/ 4g#: 4b: 4dd#:	4dd#\	o-	.
=52	=52	=52	=52	=52
4C#:\ 4E: 4G#: 4c#:	4e:/ 4g#: 4cc#: 4ee:	(>[>4cc#\	-cie-	.
4CC#:\ 4GG#: 4C#:	4E<:/ 4G#<: 4c#<: 4e<:	8cc#\L]	.	.
.	.	8b\J)	.	.
4r	4r	(>8a#\L	-ram	.
.	.	8cc#\J)	.	.
=53	=53	=53	=53	=53
4GG#:\ 4D#: 4G#: 4B:	4d#:/ 4g#: 4b: 4dd#:	(>8b\L	wes-	.
.	.	8dd#\J)	.	.
4GG#:\ 4D#: 4G#: 4B:	4d#:/ 4g#: 4b: 4dd#:	4dd#\	-tchnie-	.
4GG#:\ 4D#: 4G#: 4B:	4d#:/ 4g#: 4b: 4dd#:	4dd#\	-nia	.
=54	=54	=54	=54	=54
4C#:\ 4E: 4G#: 4c#:	4e:/ 4g#: 4cc#: 4ee:	(>[>4cc#\	tłu-	.
4FF#\ 4C# 4F#	4A#/ 4e 4f# 4a#	8cc#\L]	.	.
.	.	8b\J)	.	.
4r	4r	(>8a#\L	-mię	.
.	.	8cc#\J)	.	.
=55	=55	=55	=55	=55
*	*	*2\right	*	*
2BB\	2B/ 2d# 2f# 2b	2b\	I	.
*	*	*2\left	*	*
4EE\ 4E	(>4B/ 4c# 4g#	8b\	i-	.
.	.	8cc#\	-dę	.
!!LO:LB:g=original
=56	=56	=56	=56	=56
!	!LO:TX:t=P:problem:brak zakończenia łuku	!	!	!
2FF#\ 2F#	2A#/) 2c# 2a#	2a#/	da-	.
4DD#\ 4D#	(>4A#/ 4B 4f#	8a#/	-lej	.
.	.	8b/	a	.
=57	=57	=57	=57	=57
2EE\ 2E	2G#/) 2B 2g#	2g#/	da-	.
4CC#\ 4C#	(>4G#/ 4c# 4e	8g#/	-lej	.
.	.	8a#/	a	.
=58	=58	=58	=58	=58
2DD#\ 2D#	2F#/) 2A##X 2d#	(>2d#/	da-	.
(4AAA#\ 4AA#	(>4G#/ 4e 4g#	8e/L	.	.
.	.	8g#/J	.	.
=59	=59	=59	=59	=59
2DD#\) 2D#	2F##X/) 2c# 2d#	2d#/)	-lej	.
(4AAA#\ 4AA#	(>4G#/ 4e 4g#	8e/	a	.
.	.	8a#/	a	.
=60||	=60||	=60||	=60||	=60||
*ok[fncngndnanb-e-a-d-]	*ok[fncngndnanb-e-a-d-]	*ok[fncngndnanb-e-a-d-]	*	*
*k[b-e-a-d-]	*k[b-e-a-d-]	*k[b-e-a-d-]	*	*
4EE-/)	4G/) 4d- 4e-	[>2.e-/	da-	.
4EE-/	(>16e-/LL 16g 16b-	.	.	.
.	16B-/	.	.	.
.	16e-/ 16g 16b-	.	.	.
.	16B-/JJ	.	.	.
4EE-/	16d-/LL 16f	.	.	.
.	16B-/	.	.	.
.	16d-/ 16f	.	.	.
.	16B-/JJ	.	.	.
!!LO:LB:g=original
=61	=61	=61	=61	=61
*	*^	*	*	*
4EE-/	4e-/) 4g 4b-	4ryy	2.e-/_>	.	.
4EE-/	(>16f/LL	4d-\	.	.	.
.	16g/	.	.	.	.
.	16a-/	.	.	.	.
.	16g/JJ	.	.	.	.
4EE-/	16f/LL	4d-\	.	.	.
.	16a-/	.	.	.	.
.	16g/	.	.	.	.
.	16f/JJ	.	.	.	.
*	*v	*v	*	*	*
=62	=62	=62	=62	=62
4EE-/	4e-/) 4g	2e-/]	-lej	.
4EE-/	(>16e-/LL 16g 16b-	.	.	.
.	16B-/	.	.	.
.	16e-/ 16g 16b-	.	.	.
.	16B-/JJ	.	.	.
4EE-/	16d-/LL 16f	4ryy	.	.
.	16B-/	.	.	.
.	16d-/ 16f	.	.	.
.	16B-/JJ	.	.	.
=63	=63	=63	=63	=63
*	*^	*	*	*
4EE-/	4e-/) 4g 4b-	4ryy	2.ryy	.	.
4EE-/	(>16f/LL	4d-\	.	.	.
.	16g/	.	.	.	.
.	16a-/	.	.	.	.
.	16g/JJ	.	.	.	.
4EE-/	16f/LL	4d-\	.	.	.
.	16a-/	.	.	.	.
.	16g/	.	.	.	.
.	16f/JJ	.	.	.	.
*	*v	*v	*	*	*
=64	=64	=64	=64	=64
4EE-/	4e-/) 4g	2.ryy	.	.
4EE-/	(>16e-/LL 16g 16b-	.	.	.
.	16B-/	.	.	.
.	16e-/ 16g 16b-	.	.	.
.	16B-/JJ	.	.	.
4EE-/	16d-/LL 16f	.	.	.
.	16B-/	.	.	.
.	16d-/ 16f	.	.	.
.	16B-/JJ	.	.	.
=65	=65	=65	=65	=65
4EE-/ 4BB-	16e-/LL 16g 16b-	2.ryy	.	.
.	16B-/	.	.	.
.	16e-/ 16g 16b-	.	.	.
.	16B-/JJ	.	.	.
4EE-/ 4BB-	16d-/LL 16f	.	.	.
.	16B-/	.	.	.
.	16d-/ 16f	.	.	.
.	16B-/JJ	.	.	.
4EE-/ 4BB-	16e-/LL 16g 16b-	.	.	.
.	16B-/	.	.	.
.	16e-/ 16g 16b-	.	.	.
.	16B-/JJ)	.	.	.
=66	=66	=66	=66	=66
*^	*	*	*	*
4ryy	2.EE-\ 2.BB-	(>16d-/LL 16f	2.ryy	.	.
.	.	16B-/	.	.	.
.	.	16d-/ 16f	.	.	.
.	.	[16B-/JJ)	.	.	.
!LO:TX:a:t=m.g.	!	!	!	!	!
2ee->^>/	.	2B-\] 2e- 2g 2b-	.	.	.
!!LO:LB:g=original
=67	=67	=67	=67	=67	=67
4ryy	2.EE-;>\ 2.BB-	16d-/LL 16f	2.ryy	.	.
.	.	16B-/	.	.	.
.	.	16d-/ 16f	.	.	.
.	.	[16B-/JJ	.	.	.
2ee->^>;>/	.	2B-\] 2e- 2g 2b-	.	.	.
*v	*v	*	*	*	*
=68	=68	=68	=68	=68
2AA-\ 2E- 2A-	2c/ 2e- 2a- 2cc	4cc\	Kto	.
.	.	4.a-/	mię	.
4AA-\ 4A-	4c/ 4e- 4a- 4cc	.	.	.
.	.	8cc\	zro-	.
=69	=69	=69	=69	=69
2FF\ 2A-	2d-/ 2a- 2dd-	2dd-\	-zu-	.
4GG\ 4E- 4B-	4d-/ 4e- 4dd-	4dd-\	-mie	.
=70	=70	=70	=70	=70
2AA-\ 2E- 2A-	2c/ 2e- 2cc	4cc\	ten	.
.	.	4ee-\	się	.
4C\	4A-/ 4e- 4a-	4a-/	u-	.
=71	=71	=71	=71	=71
[4E-\	2G/ 2B- 2g	2g/	-ża-	.
4EE-\ 4E-]	.	.	.	.
4DD-\ 4D-	4G/ 4B- 4f	4f/	-li	.
=72	=72	=72	=72	=72
2.CC\ 2.C	2A-/ 2c 2e-	4e-/	I	.
.	.	4a-/	w bia-	.
.	4A-/ 4a-	4cc\	-łe	.
!!LO:PB:g=original
=73	=73	=73	=73	=73
2BBB-\ 2BB-	2d-/ 2a- 2dd-	4dd-\	u-	.
.	.	4dd-\	-de-	.
4EE-\ 4E-	4d-/ 4g 4dd-	4dd-\	-rzy	.
=74	=74	=74	=74	=74
2AAA-\ 2AA-	2c/ 2e- 2a- 2cc	(>2cc\	dło-	.
4CC\ 4C	8B-/L 8e- 8b-	8b-/L	.	.
.	8A-/J 8a-	8a-/J	.	.
=75	=75	=75	=75	=75
2EE-\ 2E-	2B-/ 2e- 2g 2b-	2b-/)	.	.
4E-\	4e-/	4e-/	-nie	.
=76	=76	=76	=76	=76
!LO:N:vis=2	!LO:N:vis=2	!	!	!
2.AA-\ 2.E- 2.A-	2.c/ 2.e- 2.a- 2.cc	4cc\	U-	.
.	.	4.a-/	-ro-	.
.	.	8cc\	-ni	.
=77	=77	=77	=77	=77
2FF\ 2A-	2d-/ 2a- 2dd-	2dd-\	łe-	.
4GG\ 4E- 4B-	4d-/ 4e- 4dd-	4dd-\	-zkę	.
=78	=78	=78	=78	=78
2AA-\ 2E- 2A-	2c/ 2e- 2cc	4cc\	i	.
!	!	!	!	!LO:DY:a
.	.	4.aa-\	ja	pp
4C\ 4E- 4c	4e-/ 4a- 4ee-	.	.	.
.	.	8ee-\	u-	.
!!LO:LB:g=original
=79	=79	=79	=79	=79
*	*^	*	*	*
2BB-\ 2E- 2B-	2d-/ 2dd-	4a-\	2dd-\	-ro-	.
.	.	4g\	.	.	.
4AA-\ 4E- 4A-	4c/ 4a- 4cc	4ryy	4cc\	-nię	.
*	*v	*v	*	*	*
=80	=80	=80	=80	=80
2.DD-\ 2.D-	2.B-/ 2.f 2.a- 2.b-	4b-\	a-	.
.	.	4cc\	-le	.
.	.	4dd-\	już	.
=81	=81	=81	=81	=81
2.EE-\ 2.E-	2.c/ 2.e- 2.a- 2.cc	4b-\	nie	.
.	.	4.ee-\	pój-	.
.	.	8cc\	-dę	.
=82	=82	=82	=82	=82
2.EE-\ 2.E-	2B-/ 2d- 2f 2b-	(>8b-\L	da-	.
.	.	8cc\J	.	.
.	.	4.b-\	.	.
.	4G/ 4d- 4e- 4g	.	.	.
.	.	8a-/)	.	.
=83	=83	=83	=83	=83
4AAA-\ 4AA-	4A-/ 4c 4e- 4a-	2a-/	-lej	.
4AA-\ 4E-	(>16a-/LL 16cc 16ee-	.	.	.
.	16e-/	.	.	.
.	16a-/ 16cc 16ee-	.	.	.
.	16e-/JJ	.	.	.
4AA-\ 4E-	16a-/LL 16b-	4r	.	.
.	16e-/	.	.	.
.	16a-/ 16b-	.	.	.
.	16e-/JJ	.	.	.
=84	=84	=84	=84	=84
*	*^	*	*	*
4AA-\ 4E-	4a-/) 4cc 4ee-	4ryy	2.r	.	.
4AA-\ 4E- 4B-	(>16b-/LL	4a-\	.	.	.
.	16cc/	.	.	.	.
.	16dd-/	.	.	.	.
.	16cc/JJ	.	.	.	.
4AA-\ 4E- 4B-	16b-/LL	4a-\	.	.	.
.	16dd-/	.	.	.	.
.	16cc/	.	.	.	.
.	16b-/JJ	.	.	.	.
*	*v	*v	*	*	*
!!LO:LB:g=original
=85	=85	=85	=85	=85
4AA-\ 4E- 4c	4a-/) 4cc	2.r	.	.
4AA-\ 4E-	(>16a-/LL 16cc 16ee-	.	.	.
.	16e-/	.	.	.
.	16a-/ 16cc 16ee-	.	.	.
.	16e-/JJ	.	.	.
4AA-\ 4E-	16a-/LL 16b-	.	.	.
.	16e-/	.	.	.
.	16a-/ 16b-	.	.	.
.	16e-/JJ	.	.	.
=86	=86	=86	=86	=86
*	*^	*	*	*
4AA-\ 4E-	4a-/) 4cc 4ee-	4ryy	2.r	.	.
4AA-\ 4E- 4B-	(>16b-/LL	4a-\	.	.	.
.	16cc/	.	.	.	.
.	16dd-/	.	.	.	.
.	16cc/JJ	.	.	.	.
4AA-\ 4E- 4B-	16b-/LL	4a-\	.	.	.
.	16dd-/	.	.	.	.
.	16cc/	.	.	.	.
.	16b-/JJ	.	.	.	.
*	*v	*v	*	*	*
=87	=87	=87	=87	=87
4AA-\ 4E- 4c	4a-/) 4cc	4r	.	.
4AA-\ 4E-	(>16a-/LL 16cc 16ee-	4r	.	.
.	16e-/	.	.	.
.	16a-/ 16cc 16ee-	.	.	.
.	16e-/JJ	.	.	.
4AA-\ 4E-	16a-/LL 16b-	4ee-\	Nie	.
.	16e-/	.	.	.
.	16a-/ 16b-	.	.	.
.	16e-/JJ	.	.	.
=88	=88	=88	=88	=88
4AA-\ 4E-	16a-/LL 16cc 16ee-	(>[>2.ee-\	pój-	.
.	16e-/	.	.	.
.	16a-/ 16cc 16ee-	.	.	.
.	16e-/JJ	.	.	.
4AA-\ 4E-	16a-/LL 16b-	.	.	.
.	16e-/	.	.	.
.	16a-/ 16b-	.	.	.
.	16e-/JJ	.	.	.
4AA-\ 4E-	16a-/LL 16cc 16ee-	.	.	.
.	16e-/	.	.	.
.	16a-/ 16cc 16ee-	.	.	.
.	16e-/JJ)	.	.	.
=89	=89	=89	=89	=89
4AA-\ 4E-	(>16a-/LL 16b-	2.ee-\_>	.	.
.	16e-/	.	.	.
.	16a-/ 16b-	.	.	.
.	16e-/JJ	.	.	.
4AA-\ 4E-	16a-/LL 16cc 16ee-	.	.	.
.	16e-/	.	.	.
.	16a-/ 16cc 16ee-	.	.	.
.	16e-/JJ	.	.	.
4AA-\ 4E-	16a-/LL 16b-	.	.	.
.	16e-/	.	.	.
.	16a-/ 16b-	.	.	.
.	16e-/JJ	.	.	.
=90	=90	=90	=90	=90
4AA-\ 4E-	16a-/LL 16cc 16ee-	2ee-\])	.	.
.	16e-/	.	.	.
.	16a-/ 16cc 16ee-	.	.	.
.	16e-/JJ	.	.	.
4AA-\ 4E-	16a-/LL 16b-	.	.	.
.	16e-/	.	.	.
.	16a-/ 16b-	.	.	.
.	16e-/JJ	.	.	.
4AA-\ 4E-	16a-/LL 16cc 16ee-	4cc\	-dę	.
.	16e-/	.	.	.
.	16a-/ 16cc 16ee-	.	.	.
.	16e-/JJ)	.	.	.
!!LO:LB:g=original
=91	=91	=91	=91	=91
*	*ped	*	*	*
4AA-\ 4E-	16a-/LL 16cc	[>2.cc\	Nie!	.
.	16e-/	.	.	.
.	16a-/ 16cc	.	.	.
.	16e-/JJ	.	.	.
4c\	16a-/LL 16cc 16ee-	.	.	.
.	16e-/	.	.	.
.	16a-/ 16cc 16ee-	.	.	.
.	16e-/JJ	.	.	.
!	!LO:TX:b:t=ad fine	!	!	!
4AA-\ 4E-	16a-/LL 16cc	.	.	.
.	16e-/	.	.	.
.	16a-/ 16cc	.	.	.
.	16e-/JJ	.	.	.
=92	=92	=92	=92	=92
4c\	16a-/LL 16cc 16ee-	2.cc\_>	.	.
.	16e-/	.	.	.
.	16a-/ 16cc 16ee-	.	.	.
.	16e-/JJ	.	.	.
4AA-\ 4E-	16a-/LL 16cc	.	.	.
.	16e-/	.	.	.
.	16a-/ 16cc	.	.	.
.	16e-/JJ	.	.	.
4c\	16a-/LL 16cc 16ee-	.	.	.
.	16e-/	.	.	.
.	16a-/ 16cc 16ee-	.	.	.
.	16e-/JJ	.	.	.
=93	=93	=93	=93	=93
*^	*	*	*	*
4ryy	2.AA-\ 2.E-	16a-/LL 16cc	2.cc\]	.	.
.	.	16e-/	.	.	.
.	.	16a-/ 16cc	.	.	.
.	.	[<16e-/JJ	.	.	.
!LO:TX:a:t=m.g.	!	!	!	!	!
2aa->^>/	.	2e-\] 2a- 2cc 2ee-	.	.	.
=94	=94	=94	=94	=94	=94
4ryy	2.AA-\ 2.E-	16a-/LL 16cc	2.ryy	.	.
.	.	16e-/	.	.	.
.	.	16a-/ 16cc	.	.	.
.	.	[<16e-/JJ	.	.	.
!LO:TX:a:t=m.g.	!	!	!	!	!
2aa->^>/	.	2e-\] 2a- 2cc 2ee-	.	.	.
*v	*v	*	*	*	*
=95	=95	=95	=95	=95
2.AAA-/	2.r	2.ryy	.	.
=96	=96	=96	=96	=96
2.AAA-/	2.r	2.ryy	.	.
*	*Xped	*	*	*
==	==	==	==	==
*-	*-	*-	*-	*-
!!!system-decoration: s1{(s2,s3)}
!!!RDF**kern: < = below
!!!RDF**kern: > = above
!!!ENC: Katarzyna Serwa
!!!END: 2021-11-04
!!!ENC: Marta Chmielewska
!!!END: 2021-11-05
